X:1
T:Broughton, 66.66 D
T:Broughton, 66.66 D
T:Thomas Hastings (1784-1872)
T:Public Domain Courtesy of the Cyber Hymnal™
C:Thomas Hastings (1784-1872)
Z:Public Domain
Z:Courtesy of the Cyber Hymnal™
%%score ( 1 2 ) ( 3 4 )
L:1/8
Q:1/4=185
M:6/4
K:Eb
V:1 treble 
V:2 treble 
V:3 bass 
V:4 bass 
V:1
 [GB]4 | [GB]6 [GB]2 [FA]2 [EG]2 | (G4 F4) [DA]4 | [FA]6 [FA]2 [EG]2 [DF]2 | [EG]8 [GB]4 | %5
 [GB]6 [GB]2 [Ac]2 [Fd]2 | (e4 B4) [EG]4 | [EB]2 [EA]2 [EG]4 [DF]4 | E8 [DB]4 | %9
 [Fd]6 [Fd]2 [Fc]2 [FB]2 | (B4 =A4) [Fc]4 | [Fc]6 [Fc]2 [FB]2 [F=A]2 | [FB]8 [GB]4 | %13
 [GB]6 [GB]2 [Ac]2 [Fd]2 | (e4 B4) [EG]4 | E2 [EF]2 [EG]4 [DF]4 | E8 |] %17
V:2
 x4 | x12 | D8 x4 | x12 | x12 | x12 | G8 x4 | x12 | E8 x4 | x12 | F8 x4 | x12 | x12 | x12 | G8 x4 | %15
 E2 x10 | E8 |] %17
V:3
 [E,B,]4 | [E,E]6 [E,B,]2 [D,B,]2 [E,B,]2 | [B,,B,]8 [B,,B,]4 | %3
 [B,,D]6 [B,,B,]2 [B,,B,]2 [B,,B,]2 | [E,B,]8 [E,B,]4 | [E,B,]6 [E,B,]2 [E,B,]2 [E,B,]2 | %6
 [E,B,]8 [E,B,]4 | [G,E]2 [A,C]2 B,4 [B,,A,]4 | [E,G,]8 [B,,B,]4 | B,6 [B,D]2 [=A,E]2 [B,D]2 | %10
 (D4 C4) [F,=A,]4 | [F,=A,]6 [F,E]2 [F,D]2 [F,C]2 | [B,D]8 [E,B,]4 | %13
 [E,B,]6 [E,B,]2 [E,B,]2 [E,B,]2 | [E,B,]8 [E,B,]4 | [G,B,]2 [A,C]2 B,4 [B,,A,]4 | [E,G,]8 |] %17
V:4
 x4 | x12 | x12 | x12 | x12 | x12 | x12 | x4 B,4 x4 | x12 | B,6 x6 | F,8 x4 | x12 | x12 | x12 | %14
 x12 | x4 B,4 x4 | x8 |] %17

